icons/hexagon-help.svg

<svg xmlns="http://www.w3.org/2000/svg" width="24" height="24" viewBox="0 0 24 24">
  <path d="M16.3173342,1 C17.0224657,1 17.6754933,1.37131518 18.0360686,1.97728201 L23.3914405,10.977282 C23.7664613,11.6075253 23.7664613,12.3924747 23.3914405,13.022718 L18.0360686,22.022718 C17.6754933,22.6286848 17.0224657,23 16.3173342,23 L7.68266576,23 C6.97753431,23 6.32450667,22.6286848 5.96393136,22.022718 L0.608559463,13.022718 C0.233538656,12.3924747 0.233538656,11.6075253 0.608559463,10.977282 L5.96393136,1.97728201 C6.32450667,1.37131518 6.97753431,1 7.68266576,1 L16.3173342,1 Z M12,15 C11.4477153,15 11,15.4477153 11,16 C11,16.5522847 11.4477153,17 12,17 C12.5522847,17 13,16.5522847 13,16 C13,15.4477153 12.5522847,15 12,15 Z M12.1,7 C11,7 10,7.6 9.5,8.5 L9.5,8.5 L9.47382857,8.54710857 L9.42052358,8.6585764 C9.23714337,9.11159999 9.40918266,9.64069568 9.84096572,9.89468572 L9.84096572,9.89468572 L9.85,9.9 L9.95782931,9.95473156 C10.3968515,10.1440978 10.9184586,9.98130389 11.1671582,9.55851454 C11.1711627,9.55170695 11.1750832,9.54485031 11.1789188,9.53794618 L11.1789188,9.53794618 L11.2,9.5 L11.2796875,9.39238281 C11.4765625,9.153125 11.75,9 12.1,9 C12.7,9 13.1,9.3 13.1,9.9 C13.1,10.2 13,10.4 12.5,10.7 C11.9,11.1 11,11.7 11,13 L11,13 L11,14 L13,14 L13,13 L13.0027047,12.9477085 C13.0214876,12.7801653 13.1454545,12.6727273 13.6,12.4 C14.2,12 15.1,11.4 15.1,10 C15.1,8.3 13.8,7 12.1,7 Z"/>
</svg>

<svg xmlns="http://www.w3.org/2000/svg" viewBox="0 0 24 24">
  <path d="M16.32 1a2 2 0 0 1 1.72.98l5.35 9a2 2 0 0 1 0 2.04l-5.35 9a2 2 0 0 1-1.72.98H7.68a2 2 0 0 1-1.72-.98l-5.35-9a2 2 0 0 1 0-2.04l5.35-9A2 2 0 0 1 7.68 1h8.64zM12 15a1 1 0 1 0 0 2 1 1 0 0 0 0-2zm.1-8C11 7 10 7.6 9.5 8.5l-.03.05-.05.1a1 1 0 0 0 .42 1.24l.01.01.1.05a.96.96 0 0 0 1.23-.41l.02-.04.08-.1a1 1 0 0 1 .82-.4c.6 0 1 .3 1 .9 0 .3-.1.5-.6.8-.6.4-1.5 1-1.5 2.3v1h2v-1.05c.02-.17.15-.28.6-.55.6-.4 1.5-1 1.5-2.4 0-1.7-1.3-3-3-3z"/>
</svg>
